X:241
T: Miss Aniston's Reel
R: reel
M: C|
L: 1/8
K: G
G |\
dG G/G/G (d2Bd) | (eg).e.f (dB).B.g | dBgGABd | dG G/G/G (d2Bd) | egef edcB | (ec).B.A (fd).c.B |
dGg GABd | (eg).e.f (dB).A.G | dBgGABd | dG G/G/G (fd) | egef edcB | (ec).B.A (fd).c.B |
(ef).g.e (dB).g.B | (gf).eg.d (dB).B.G | (dB).c.B (de).f.a | g2d2d2 |]

